X:300
T:the Bee's Wing
A:Northumberland
C:James Hill
M:4/4
O:England
R:Hornpipe
Z:Richard Robinson 
%%TUNEURL: http://www.leeds.ac.uk/music/Info/RRTuneBk/gettune/00000a31.html
%%ID:00000a31
K:Bb
FA|\
B>f de c<A|F>d B<F D>B F<D|\
E>G c<e D>F B>d|(3cBA (3BAG F2 GA|\
B>f df c<a|E>B G<e D>B F<d|\
E>G c>e d>c B>A|c2B2 B2::\
fe|\
dd b>f d>B|c<A f>c a>f c>A|\
G<E B>G e>c d>B|(3cBA (3BAG F2 GA|\
B>f df c<a|E>B G<e D>B F<d|\
E>G c>e d>c B>A|c2B2 B2::\
(3FGA|\
B>f (3dcB A>e (3cBA|B>f (3dcB F>E D>F|\
E>G c>e D>F B>d|(3c=Bc (3bg=e f2 F>G|\
(3Bdf (3bfd (3Acf (3afc|\
(3EGB (3eBG (3DFB (3dBF|\
E>G c>e d>c B>A|c2B2 B2::
fe|\
(3dcB (3fdf (3bfe (3dcB|\
(3cBA (3fcf (3afc (3cBA|\
(3GEG (3BGB (3edc (3dcB|\
(3c=Bc (3bg=e f2 F>G|\
(3Bdf (3bfd (3Acf (3afc|\
(3EGB (3eBG (3DFB (3dBF|\
E>G c>e d>c B>A|c2B2 B2:|
